X:37
T:Steyrer Tanz in C, nr. 33
C:traditionell
R:Steirer
A:Hallstatt, Salzkammergut
B:Corpus Musicae Popularis Austriacae (COMPA), 5.Band: J.M.Schmalnauer " Tanz Musik", Verlag Boehlau, Wien 1996
S:manuscript des Johann Michael Schmalnauer um 1820
N:im der quelle in C
N:um1800
N:in der Handschrift keine 2 .Stimme
M:3/4
L:1/8
K:C
ce |\
g2 (ec).c.a | Tg2 (fd)(Bd) | f2 (dB)(GB) | c2 (eG).c.e |\
g2 (ec).c.a | Tg2 (fd)(Bd) | f2 (dB)(GB) | c4 :|
